src/ipa/rpi/pisp/data/arducam_64mp.json
{
    "version": 2.0,
    "target": "pisp",
    "algorithms": [
        {
            "rpi.black_level": {
                "black_level": 4096
            }
        },
        {
            "rpi.lux": {
                "reference_shutter_speed": 29966,
                "reference_gain": 2.03,
                "reference_aperture": 1.0,
                "reference_lux": 910,
                "reference_Y": 13551
            }
        },
        {
            "rpi.noise": {
                "reference_constant": 0,
                "reference_slope": 2.271
            }
        },
        {
            "rpi.geq": {
                "offset": 151,
                "slope": 0.00766
            }
        },
        {
            "rpi.awb": {
                "priors": [
                    {
                        "lux": 0,
                        "prior": [
                            2000,
                            1.0,
                            3000,
                            0.0,
                            13000,
                            0.0
                        ]
                    },
                    {
                        "lux": 800,
                        "prior": [
                            2000,
                            0.0,
                            6000,
                            2.0,
                            13000,
                            2.0
                        ]
                    },
                    {
                        "lux": 1500,
                        "prior": [
                            2000,
                            0.0,
                            4000,
                            1.0,
                            6000,
                            6.0,
                            6500,
                            7.0,
                            7000,
                            1.0,
                            13000,
                            1.0
                        ]
                    }
                ],
                "modes": {
                    "auto": {
                        "lo": 2500,
                        "hi": 8000
                    },
                    "incandescent": {
                        "lo": 2500,
                        "hi": 3000
                    },
                    "tungsten": {
                        "lo": 3000,
                        "hi": 3500
                    },
                    "fluorescent": {
                        "lo": 4000,
                        "hi": 4700
                    },
                    "indoor": {
                        "lo": 3000,
                        "hi": 5000
                    },
                    "daylight": {
                        "lo": 5500,
                        "hi": 6500
                    },
                    "cloudy": {
                        "lo": 7000,
                        "hi": 8600
                    }
                },
                "bayes": 1,
                "ct_curve": [
                    2700.0,
                    0.8952,
                    0.3556,
                    3000.0,
                    0.8303,
                    0.3715,
                    4000.0,
                    0.6272,
                    0.4695,
                    4150.0,
                    0.5957,
                    0.4938,
                    6500.0,
                    0.4706,
                    0.6255
                ],
                "sensitivity_r": 1.0,
                "sensitivity_b": 1.0,
                "transverse_pos": 0.01339,
                "transverse_neg": 0.01002
            }
        },
        {
            "rpi.agc": {
                "channels": [
                    {
                        "comment": "Channel 0 is normal AGC",
                        "metering_modes": {
                            "centre-weighted": {
                                "weights": [
                                    0,
                                    0,
                                    1,
                                    1,
                                    1,
                                    1,
                                    1,
                                    1,
                                    1,
                                    1,
                                    1,
                                    1,
                                    1,
                                    0,
                                    0,
                                    0,
                                    1,
                                    1,
                                    1,
                                    1,
                                    1,
                                    2,
                                    2,
                                    2,
                                    1,
                                    1,
                                    1,
                                    1,
                                    1,
                                    0,
                                    1,
                                    1,
                                    1,
                                    1,
                                    2,
                                    2,
                                    2,
                                    2,
                                    2,
                                    2,
                                    2,
                                    1,
                                    1,
                                    1,
                                    1,
                                    1,
                                    1,
                                    2,
                                    2,
                                    2,
                                    2,
                                    2,
                                    2,
                                    2,
                                    2,
                                    2,
                                    2,
                                    2,
                                    1,
                                    1,
                                    1,
                                    1,
                                    2,
                                    2,
                                    2,
                                    2,
                                    3,
                                    3,
                                    3,
                                    2,
                                    2,
                                    2,
                                    2,
                                    1,
                                    1,
                                    1,
                                    1,
                                    2,
                                    2,
                                    2,
                                    3,
                                    3,
                                    3,
                                    3,
                                    3,
                                    2,
                                    2,
                                    2,
                                    1,
                                    1,
                                    1,
                                    1,
                                    2,
                                    2,
                                    3,
                                    3,
                                    3,
                                    4,
                                    3,
                                    3,
                                    3,
                                    2,
                                    2,
                                    1,
                                    1,
                                    1,
                                    1,
                                    2,
                                    2,
                                    3,
                                    3,
                                    4,
                                    4,
                                    4,
                                    3,
                                    3,
                                    2,
                                    2,
                                    1,
                                    1,
                                    1,
                                    1,
                                    2,
                                    2,
                                    3,
                                    3,
                                    3,
                                    4,
                                    3,
                                    3,
                                    3,
                                    2,
                                    2,
                                    1,
                                    1,
                                    1,
                                    1,
                                    2,
                                    2,
                                    2,
                                    3,
                                    3,
                                    3,
                                    3,
                                    3,
                                    2,
                                    2,
                                    2,
                                    1,
                                    1,
                                    1,
                                    1,
                                    2,
                                    2,
                                    2,
                                    2,
                                    3,
                                    3,
                                    3,
                                    2,
                                    2,
                                    2,
                                    2,
                                    1,
                                    1,
                                    1,
                                    1,
                                    2,
                                    2,
                                    2,
                                    2,
                                    2,
                                    2,
                                    2,
                                    2,
                                    2,
                                    2,
                                    2,
                                    1,
                                    1,
                                    1,
                                    1,
                                    1,
                                    1,
                                    2,
                                    2,
                                    2,
                                    2,
                                    2,
                                    2,
                                    2,
                                    1,
                                    1,
                                    1,
                                    1,
                                    0,
                                    1,
                                    1,
                                    1,
                                    1,
                                    1,
                                    2,
                                    2,
                                    2,
                                    1,
                                    1,
                                    1,
                                    1,
                                    1,
                                    0,
                                    0,
                                    0,
                                    1,
                                    1,
                                    1,
                                    1,
                                    1,
                                    1,
                                    1,
                                    1,
                                    1,
                                    1,
                                    1,
                                    0,
                                    0
                                ]
                            },
                            "spot": {
                                "weights": [
                                    0,
                                    0,
                                    0,
                                    0,
                                    0,
                                    0,
                                    0,
                                    0,
                                    0,
                                    0,
                                    0,
                                    0,
                                    0,
                                    0,
                                    0,
                                    0,
                                    0,
                                    0,
                                    0,
                                    0,
                                    0,
                                    0,
                                    0,
                                    0,
                                    0,
                                    0,
                                    0,
                                    0,
                                    0,
                                    0,
                                    0,
                                    0,
                                    0,
                                    0,
                                    0,
                                    0,
                                    0,
                                    0,
                                    0,
                                    0,
                                    0,
                                    0,
                                    0,
                                    0,
                                    0,
                                    0,
                                    0,
                                    0,
                                    0,
                                    0,
                                    0,
                                    0,
                                    0,
                                    0,
                                    0,
                                    0,
                                    0,
                                    0,
                                    0,
                                    0,
                                    0,
                                    0,
                                    0,
                                    0,
                                    0,
                                    0,
                                    0,
                                    0,
                                    0,
                                    0,
                                    0,
                                    0,
                                    0,
                                    0,
                                    0,
                                    0,
                                    0,
                                    0,
                                    0,
                                    0,
                                    0,
                                    0,
                                    1,
                                    0,
                                    0,
                                    0,
                                    0,
                                    0,
                                    0,
                                    0,
                                    0,
                                    0,
                                    0,
                                    0,
                                    0,
                                    0,
                                    1,
                                    2,
                                    1,
                                    0,
                                    0,
                                    0,
                                    0,
                                    0,
                                    0,
                                    0,
                                    0,
                                    0,
                                    0,
                                    0,
                                    1,
                                    2,
                                    3,
                                    2,
                                    1,
                                    0,
                                    0,
                                    0,
                                    0,
                                    0,
                                    0,
                                    0,
                                    0,
                                    0,
                                    0,
                                    0,
                                    1,
                                    2,
                                    1,
                                    0,
                                    0,
                                    0,
                                    0,
                                    0,
                                    0,
                                    0,
                                    0,
                                    0,
                                    0,
                                    0,
                                    0,
                                    0,
                                    1,
                                    0,
                                    0,
                                    0,
                                    0,
                                    0,
                                    0,
                                    0,
                                    0,
                                    0,
                                    0,
                                    0,
                                    0,
                                    0,
                                    0,
                                    0,
                                    0,
                                    0,
                                    0,
                                    0,
                                    0,
                                    0,
                                    0,
                                    0,
                                    0,
                                    0,
                                    0,
                                    0,
                                    0,
                                    0,
                                    0,
                                    0,
                                    0,
                                    0,
                                    0,
                                    0,
                                    0,
                                    0,
                                    0,
                                    0,
                                    0,
                                    0,
                                    0,
                                    0,
                                    0,
                                    0,
                                    0,
                                    0,
                                    0,
                                    0,
                                    0,
                                    0,
                                    0,
                                    0,
                                    0,
                                    0,
                                    0,
                                    0,
                                    0,
                                    0,
                                    0,
                                    0,
                                    0,
                                    0,
                                    0,
                                    0,
                                    0,
                                    0,
                                    0,
                                    0,
                                    0,
                                    0,
                                    0,
                                    0,
                                    0,
                                    0,
                                    0,
                                    0,
                                    0,
                                    0,
                                    0,
                                    0,
                                    0
                                ]
                            },
                            "matrix": {
                                "weights": [
                                    1,
                                    1,
                                    1,
                                    1,
                                    1,
                                    1,
                                    1,
                                    1,
                                    1,
                                    1,
                                    1,
                                    1,
                                    1,
                                    1,
                                    1,
                                    1,
                                    1,
                                    1,
                                    1,
                                    1,
                                    1,
                                    1,
                                    1,
                                    1,
                                    1,
                                    1,
                                    1,
                                    1,
                                    1,
                                    1,
                                    1,
                                    1,
                                    1,
                                    1,
                                    1,
                                    1,
                                    1,
                                    1,
                                    1,
                                    1,
                                    1,
                                    1,
                                    1,
                                    1,
                                    1,
                                    1,
                                    1,
                                    1,
                                    1,
                                    1,
                                    1,
                                    1,
                                    1,
                                    1,
                                    1,
                                    1,
                                    1,
