src/ipa/rpi/pisp/data/imx378.json
{
    "version": 2.0,
    "target": "pisp",
    "algorithms": [
        {
            "rpi.black_level": {
                "black_level": 4096
            }
        },
        {
            "rpi.lux": {
                "reference_shutter_speed": 27242,
                "reference_gain": 1.0,
                "reference_aperture": 1.0,
                "reference_lux": 861,
                "reference_Y": 14584
            }
        },
        {
            "rpi.noise": {
                "reference_constant": 0,
                "reference_slope": 2.767
            }
        },
        {
            "rpi.geq": {
                "offset": 204,
                "slope": 0.01078
            }
        },
        {
            "rpi.awb": {
                "priors": [
                    {
                        "lux": 0,
                        "prior": [
                            2000,
                            1.0,
                            3000,
                            0.0,
                            13000,
                            0.0
                        ]
                    },
                    {
                        "lux": 800,
                        "prior": [
                            2000,
                            0.0,
                            6000,
                            2.0,
                            13000,
                            2.0
                        ]
                    },
                    {
                        "lux": 1500,
                        "prior": [
                            2000,
                            0.0,
                            4000,
                            1.0,
                            6000,
                            6.0,
                            6500,
                            7.0,
                            7000,
                            1.0,
                            13000,
                            1.0
                        ]
                    }
                ],
                "modes": {
                    "auto": {
                        "lo": 2500,
                        "hi": 8000
                    },
                    "incandescent": {
                        "lo": 2500,
                        "hi": 3000
                    },
                    "tungsten": {
                        "lo": 3000,
                        "hi": 3500
                    },
                    "fluorescent": {
                        "lo": 4000,
                        "hi": 4700
                    },
                    "indoor": {
                        "lo": 3000,
                        "hi": 5000
                    },
                    "daylight": {
                        "lo": 5500,
                        "hi": 6500
                    },
                    "cloudy": {
                        "lo": 7000,
                        "hi": 8600
                    }
                },
                "bayes": 1,
                "ct_curve": [
                    2300.0,
                    0.9463,
                    0.3608,
                    2856.0,
                    0.7633,
                    0.3638,
                    3000.0,
                    0.7119,
                    0.3769,
                    4000.0,
                    0.5515,
                    0.4852,
                    4100.0,
                    0.5178,
                    0.5282,
                    6500.0,
                    0.4288,
                    0.6985
                ],
                "sensitivity_r": 1.05,
                "sensitivity_b": 1.05,
                "transverse_pos": 0.0238,
                "transverse_neg": 0.04429
            }
        },
        {
            "rpi.agc": {
                "channels": [
                    {
                        "comment": "Channel 0 is normal AGC",
                        "metering_modes": {
                            "centre-weighted": {
                                "weights": [
                                    0,
                                    0,
                                    1,
                                    1,
                                    1,
                                    1,
                                    1,
                                    1,
                                    1,
                                    1,
                                    1,
                                    1,
                                    1,
                                    0,
                                    0,
                                    0,
                                    1,
                                    1,
                                    1,
                                    1,
                                    1,
                                    2,
                                    2,
                                    2,
                                    1,
                                    1,
                                    1,
                                    1,
                                    1,
                                    0,
                                    1,
                                    1,
                                    1,
                                    1,
                                    2,
                                    2,
                                    2,
                                    2,
                                    2,
                                    2,
                                    2,
                                    1,
                                    1,
                                    1,
                                    1,
                                    1,
                                    1,
                                    2,
                                    2,
                                    2,
                                    2,
                                    2,
                                    2,
                                    2,
                                    2,
                                    2,
                                    2,
                                    2,
                                    1,
                                    1,
                                    1,
                                    1,
                                    2,
                                    2,
                                    2,
                                    2,
                                    3,
                                    3,
                                    3,
                                    2,
                                    2,
                                    2,
                                    2,
                                    1,
                                    1,
                                    1,
                                    1,
                                    2,
                                    2,
                                    2,
                                    3,
                                    3,
                                    3,
                                    3,
                                    3,
                                    2,
                                    2,
                                    2,
                                    1,
                                    1,
                                    1,
                                    1,
                                    2,
                                    2,
                                    3,
                                    3,
                                    3,
                                    4,
                                    3,
                                    3,
                                    3,
                                    2,
                                    2,
                                    1,
                                    1,
                                    1,
                                    1,
                                    2,
                                    2,
                                    3,
                                    3,
                                    4,
                                    4,
                                    4,
                                    3,
                                    3,
                                    2,
                                    2,
                                    1,
                                    1,
                                    1,
                                    1,
                                    2,
                                    2,
                                    3,
                                    3,
                                    3,
                                    4,
                                    3,
                                    3,
                                    3,
                                    2,
                                    2,
                                    1,
                                    1,
                                    1,
                                    1,
                                    2,
                                    2,
                                    2,
                                    3,
                                    3,
                                    3,
                                    3,
                                    3,
                                    2,
                                    2,
                                    2,
                                    1,
                                    1,
                                    1,
                                    1,
                                    2,
                                    2,
                                    2,
                                    2,
                                    3,
                                    3,
                                    3,
                                    2,
                                    2,
                                    2,
                                    2,
                                    1,
                                    1,
                                    1,
                                    1,
                                    2,
                                    2,
                                    2,
                                    2,
                                    2,
                                    2,
                                    2,
                                    2,
                                    2,
                                    2,
                                    2,
                                    1,
                                    1,
                                    1,
                                    1,
                                    1,
                                    1,
                                    2,
                                    2,
                                    2,
                                    2,
                                    2,
                                    2,
                                    2,
                                    1,
                                    1,
                                    1,
                                    1,
                                    0,
                                    1,
                                    1,
                                    1,
                                    1,
                                    1,
                                    2,
                                    2,
                                    2,
                                    1,
                                    1,
                                    1,
                                    1,
                                    1,
                                    0,
                                    0,
                                    0,
                                    1,
                                    1,
                                    1,
                                    1,
                                    1,
                                    1,
                                    1,
                                    1,
                                    1,
                                    1,
                                    1,
                                    0,
                                    0
                                ]
                            },
                            "spot": {
                                "weights": [
                                    0,
                                    0,
                                    0,
                                    0,
                                    0,
                                    0,
                                    0,
                                    0,
                                    0,
                                    0,
                                    0,
                                    0,
                                    0,
                                    0,
                                    0,
                                    0,
                                    0,
                                    0,
                                    0,
                                    0,
                                    0,
                                    0,
                                    0,
                                    0,
                                    0,
                                    0,
                                    0,
                                    0,
                                    0,
                                    0,
                                    0,
                                    0,
                                    0,
                                    0,
                                    0,
                                    0,
                                    0,
                                    0,
                                    0,
                                    0,
                                    0,
                                    0,
                                    0,
                                    0,
                                    0,
                                    0,
                                    0,
                                    0,
                                    0,
                                    0,
                                    0,
                                    0,
                                    0,
                                    0,
                                    0,
                                    0,
                                    0,
                                    0,
                                    0,
                                    0,
                                    0,
                                    0,
                                    0,
                                    0,
                                    0,
                                    0,
                                    0,
                                    0,
                                    0,
                                    0,
                                    0,
                                    0,
                                    0,
                                    0,
                                    0,
                                    0,
                                    0,
                                    0,
                                    0,
                                    0,
                                    0,
                                    0,
                                    1,
                                    0,
                                    0,
                                    0,
                                    0,
                                    0,
                                    0,
                                    0,
                                    0,
                                    0,
                                    0,
                                    0,
                                    0,
                                    0,
                                    1,
                                    2,
                                    1,
                                    0,
                                    0,
                                    0,
                                    0,
                                    0,
                                    0,
                                    0,
                                    0,
                                    0,
                                    0,
                                    0,
                                    1,
                                    2,
                                    3,
                                    2,
                                    1,
                                    0,
                                    0,
                                    0,
                                    0,
                                    0,
                                    0,
                                    0,
                                    0,
                                    0,
                                    0,
                                    0,
                                    1,
                                    2,
                                    1,
                                    0,
                                    0,
                                    0,
                                    0,
                                    0,
                                    0,
                                    0,
                                    0,
                                    0,
                                    0,
                                    0,
                                    0,
                                    0,
                                    1,
                                    0,
                                    0,
                                    0,
                                    0,
                                    0,
                                    0,
                                    0,
                                    0,
                                    0,
                                    0,
                                    0,
                                    0,
                                    0,
                                    0,
                                    0,
                                    0,
                                    0,
                                    0,
                                    0,
                                    0,
                                    0,
                                    0,
                                    0,
                                    0,
                                    0,
                                    0,
                                    0,
                                    0,
                                    0,
                                    0,
                                    0,
                                    0,
                                    0,
                                    0,
                                    0,
                                    0,
                                    0,
                                    0,
                                    0,
                                    0,
                                    0,
                                    0,
                                    0,
                                    0,
                                    0,
                                    0,
                                    0,
                                    0,
                                    0,
                                    0,
                                    0,
                                    0,
                                    0,
                                    0,
                                    0,
                                    0,
                                    0,
                                    0,
                                    0,
                                    0,
                                    0,
                                    0,
                                    0,
                                    0,
                                    0,
                                    0,
                                    0,
                                    0,
                                    0,
                                    0,
                                    0,
                                    0,
                                    0,
                                    0,
                                    0,
                                    0,
                                    0,
                                    0,
                                    0,
                                    0,
                                    0,
                                    0
                                ]
                            },
                            "matrix": {
                                "weights": [
                                    1,
                                    1,
                                    1,
                                    1,
                                    1,
                                    1,
                                    1,
                                    1,
                                    1,
                                    1,
                                    1,
                                    1,
                                    1,
                                    1,
                                    1,
                                    1,
                                    1,
                                    1,
                                    1,
                                    1,
                                    1,
                                    1,
                                    1,
                                    1,
                                    1,
                                    1,
                                    1,
                                    1,
                                    1,
                                    1,
                                    1,
                                    1,
                                    1,
                                    1,
                                    1,
                                    1,
                                    1,
                                    1,
                                    1,
                                    1,
                                    1,
                                    1,
                                    1,
                                    1,
                                    1,
                                    1,
                                    1,
                                    1,
                                    1,
                                    1,
                                    1,
                                    1,
                                    1,
                                    1,
                                    1,
